X:21019 
T:CAHILL'S WORKSHOP 
B:DMI.0408
Z:Nordberg/Black
R:jig
%Q:1/4=160
M:6/8
L:1/8
K:Am
B|A3 AGE|G2E E3|A3 Bcd|ecA A2B|
A3 AGE|G2E G2E|D2E G2A|1 B2G G2:|\
[2 B2A A2||
c|B2d d2B|G2E E3|c2A Bcd|ecA A2c|
B2d d2B|G2E G2E|D2E G2A|1 B2G G2:|\
[2 B2A A3|]

%%%

